contributed-vectors/skyline.svg

<?xml version="1.0" encoding="UTF-8" standalone="no"?>
<svg
   xmlns:dc="http://purl.org/dc/elements/1.1/"
   xmlns:cc="http://creativecommons.org/ns#"
   xmlns:rdf="http://www.w3.org/1999/02/22-rdf-syntax-ns#"
   xmlns:svg="http://www.w3.org/2000/svg"
   xmlns="http://www.w3.org/2000/svg"
   xmlns:sodipodi="http://sodipodi.sourceforge.net/DTD/sodipodi-0.dtd"
   xmlns:inkscape="http://www.inkscape.org/namespaces/inkscape"
   viewBox="0 0 192 192"
   version="1.1"
   id="svg16"
   sodipodi:docname="skyline.svg"
   inkscape:version="0.92.4 (5da689c313, 2019-01-14)">
  <metadata
     id="metadata20">
    <rdf:RDF>
      <cc:Work
         rdf:about="">
        <dc:format>image/svg+xml</dc:format>
        <dc:type
           rdf:resource="http://purl.org/dc/dcmitype/StillImage" />
        <dc:title></dc:title>
      </cc:Work>
    </rdf:RDF>
  </metadata>
  <sodipodi:namedview
     pagecolor="#ffffff"
     bordercolor="#666666"
     borderopacity="1"
     objecttolerance="10"
     gridtolerance="10"
     guidetolerance="10"
     inkscape:pageopacity="0"
     inkscape:pageshadow="2"
     inkscape:window-width="1920"
     inkscape:window-height="1017"
     id="namedview18"
     showgrid="true"
     inkscape:zoom="2.4583333"
     inkscape:cx="117.53296"
     inkscape:cy="158.14646"
     inkscape:window-x="-8"
     inkscape:window-y="-8"
     inkscape:window-maximized="1"
     inkscape:current-layer="svg16">
    <inkscape:grid
       type="xygrid"
       id="grid827"
       spacingx="4"
       spacingy="4" />
  </sodipodi:namedview>
  <defs
     id="defs4">
    <style
       id="style2">.a{fill:none;stroke:#b1b5bd;stroke-linecap:round;stroke-linejoin:round;isolation:isolate;opacity:0.63;}</style>
  </defs>
  <rect
     style="opacity:1;vector-effect:none;fill:#ffffff;fill-opacity:1;fill-rule:evenodd;stroke:none;stroke-width:8;stroke-linecap:round;stroke-linejoin:round;stroke-miterlimit:4;stroke-dasharray:none;paint-order:stroke fill markers"
     id="rect829"
     width="64"
     height="64"
     x="8"
     y="64"
     ry="32" />
  <rect
     style="opacity:1;vector-effect:none;fill:#ffffff;fill-opacity:1;fill-rule:evenodd;stroke:none;stroke-width:8;stroke-linecap:round;stroke-linejoin:round;stroke-miterlimit:4;stroke-dasharray:none;paint-order:stroke fill markers"
     id="rect829-5"
     width="64"
     height="64"
     x="64"
     y="120"
     ry="32" />
  <path
     style="fill:#bd9aff;stroke:none;stroke-width:1px;stroke-linecap:butt;stroke-linejoin:miter;stroke-opacity:1"
     d="M 40 64 C 38.648008 64 37.318713 64.09269 36.011719 64.253906 C 36.049801 65.540713 36.696527 76.928702 48 92 C 56.089825 102.78643 64.164972 108.10554 68.578125 110.43555 C 70.762823 106.10179 72 101.20229 72 96 C 72 78.272 57.728 64 40 64 z "
     id="path846" />
  <path
     style="fill:#9abeff;stroke:none;stroke-width:1px;stroke-linecap:butt;stroke-linejoin:miter;stroke-opacity:1"
     d="M 96 120 C 92.75572 120 89.628148 120.48144 86.681641 121.37109 C 92.120032 124.51184 104 133.47943 104 152 C 104 170.52057 92.120032 179.48816 86.681641 182.62891 C 89.628148 183.51856 92.75572 184 96 184 C 113.728 184 128 169.728 128 152 C 128 134.272 113.728 120 96 120 z "
     id="path848" />
  <rect
     style="opacity:1;vector-effect:none;fill:#ffffff;fill-opacity:1;fill-rule:evenodd;stroke:none;stroke-width:8;stroke-linecap:round;stroke-linejoin:round;stroke-miterlimit:4;stroke-dasharray:none;paint-order:stroke fill markers"
     id="rect829-0"
     width="64"
     height="64"
     x="-184"
     y="-128"
     ry="32"
     transform="scale(-1)" />
  <rect
     style="opacity:1;vector-effect:none;fill:#ffffff;fill-opacity:1;fill-rule:evenodd;stroke:none;stroke-width:8;stroke-linecap:round;stroke-linejoin:round;stroke-miterlimit:4;stroke-dasharray:none;paint-order:stroke fill markers"
     id="rect829-5-3"
     width="64"
     height="64"
     x="-128"
     y="-72.000008"
     ry="32"
     transform="scale(-1)" />
  <path
     inkscape:connector-curvature="0"
     style="fill:#bd9aff;stroke:none;stroke-width:1px;stroke-linecap:butt;stroke-linejoin:miter;stroke-opacity:1"
     d="m 152,128.00001 c 1.35199,0 2.68129,-0.0927 3.98828,-0.25391 C 155.95018,126.4593 155.30347,115.07131 144,100.00001 135.91018,89.213577 127.83503,83.894467 123.42188,81.564457 121.23718,85.898217 120,90.797717 120,96.000007 c 0,17.728003 14.272,32.000003 32,32.000003 z"
     id="path846-1" />
  <path
     inkscape:connector-curvature="0"
     style="fill:#ff837d;stroke:none;stroke-width:1px;stroke-linecap:butt;stroke-linejoin:miter;stroke-opacity:1"
     d="m 96,72.000007 c 3.24428,0 6.37185,-0.48144 9.31836,-1.37109 C 99.879968,67.488167 88,58.520577 88,40.000007 88,21.479437 99.879968,12.511847 105.31836,9.3710976 102.37185,8.4814476 99.24428,8.0000076 96,8.0000076 c -17.728,0 -32,14.2719994 -32,31.9999994 0,17.728 14.272,32 32,32 z"
     id="path848-4" />
</svg>

<svg xmlns="http://www.w3.org/2000/svg" id="svg16" version="1.1" viewBox="0 0 192 192"><defs id="defs4"><style id="style2">.a{fill:none;stroke:#b1b5bd;stroke-linecap:round;stroke-linejoin:round;isolation:isolate;opacity:.63}</style></defs><rect id="rect829" width="64" height="64" x="8" y="64" ry="32" style="opacity:1;vector-effect:none;fill:#fff;fill-opacity:1;fill-rule:evenodd;stroke:none;stroke-width:8;stroke-linecap:round;stroke-linejoin:round;stroke-miterlimit:4;stroke-dasharray:none;paint-order:stroke fill markers"/><rect id="rect829-5" width="64" height="64" x="64" y="120" ry="32" style="opacity:1;vector-effect:none;fill:#fff;fill-opacity:1;fill-rule:evenodd;stroke:none;stroke-width:8;stroke-linecap:round;stroke-linejoin:round;stroke-miterlimit:4;stroke-dasharray:none;paint-order:stroke fill markers"/><path id="path846" d="M40 64a32.54 32.54 0 0 0-3.988.254C36.05 65.54 36.697 76.929 48 92c8.09 10.786 16.165 16.106 20.578 18.436A31.967 31.967 0 0 0 72 96c0-17.728-14.272-32-32-32z" style="fill:#bd9aff;stroke:none;stroke-width:1px;stroke-linecap:butt;stroke-linejoin:miter;stroke-opacity:1"/><path id="path848" d="M96 120c-3.244 0-6.372.481-9.318 1.371C92.12 124.511 104 133.48 104 152c0 18.52-11.88 27.488-17.318 30.629A32.187 32.187 0 0 0 96 184c17.728 0 32-14.272 32-32s-14.272-32-32-32z" style="fill:#9abeff;stroke:none;stroke-width:1px;stroke-linecap:butt;stroke-linejoin:miter;stroke-opacity:1"/><rect id="rect829-0" width="64" height="64" x="-184" y="-128" ry="32" style="opacity:1;vector-effect:none;fill:#fff;fill-opacity:1;fill-rule:evenodd;stroke:none;stroke-width:8;stroke-linecap:round;stroke-linejoin:round;stroke-miterlimit:4;stroke-dasharray:none;paint-order:stroke fill markers" transform="scale(-1)"/><rect id="rect829-5-3" width="64" height="64" x="-128" y="-72" ry="32" style="opacity:1;vector-effect:none;fill:#fff;fill-opacity:1;fill-rule:evenodd;stroke:none;stroke-width:8;stroke-linecap:round;stroke-linejoin:round;stroke-miterlimit:4;stroke-dasharray:none;paint-order:stroke fill markers" transform="scale(-1)"/><path id="path846-1" d="M152 128c1.352 0 2.681-.093 3.988-.254-.038-1.287-.685-12.675-11.988-27.746-8.09-10.786-16.165-16.106-20.578-18.436A31.967 31.967 0 0 0 120 96c0 17.728 14.272 32 32 32z" style="fill:#bd9aff;stroke:none;stroke-width:1px;stroke-linecap:butt;stroke-linejoin:miter;stroke-opacity:1"/><path id="path848-4" d="M96 72c3.244 0 6.372-.481 9.318-1.371C99.88 67.489 88 58.52 88 40c0-18.52 11.88-27.488 17.318-30.629A32.187 32.187 0 0 0 96 8C78.272 8 64 22.272 64 40s14.272 32 32 32z" style="fill:#ff837d;stroke:none;stroke-width:1px;stroke-linecap:butt;stroke-linejoin:miter;stroke-opacity:1"/></svg>
